public/new/svg16.svg

<svg fill="none" height="14" viewBox="0 0 15 14" width="15" xmlns="http://www.w3.org/2000/svg"><g stroke="#77787e"><path d="m4.0791 5.5c1.10457 0 2-.89543 2-2s-.89543-2-2-2-2 .89543-2 2 .89543 2 2 2z"/><path d="m11.0791 12.5c1.1046 0 2-.8954 2-2 0-1.10457-.8954-2-2-2-1.10457 0-2 .89543-2 2 0 1.1046.89543 2 2 2z"/><path d="m10.0791 1.5-5 11" stroke-linecap="square"/></g></svg>

<svg width="15" height="14" viewBox="0 0 15 14" fill="none" xmlns="http://www.w3.org/2000/svg">
<path d="M4.0791 5.5C5.18367 5.5 6.0791 4.60457 6.0791 3.5C6.0791 2.39543 5.18367 1.5 4.0791 1.5C2.97453 1.5 2.0791 2.39543 2.0791 3.5C2.0791 4.60457 2.97453 5.5 4.0791 5.5Z" stroke="#77787E"/>
<path d="M11.0791 12.5C12.1837 12.5 13.0791 11.6046 13.0791 10.5C13.0791 9.39543 12.1837 8.5 11.0791 8.5C9.97453 8.5 9.0791 9.39543 9.0791 10.5C9.0791 11.6046 9.97453 12.5 11.0791 12.5Z" stroke="#77787E"/>
<path d="M10.0791 1.5L5.0791 12.5" stroke="#77787E" stroke-linecap="square"/>
</svg>
